X:1
T: Mr. Ramsay Maule's Favourite
C:Nathaniel Gow
R:Jig
Q:180
K:Em
M:6/8
L:1/16
F2|G2A2B2 E4E2|E2B,2E2 E4F2|G2A2B2 c2A2F2|B2G2E2 A2F2D2|G2A2B2 E4E2|E2B,2E2 E3FGA|B2e2g2 f2b2^d2|e6E4F2|
G2A2B2 E4E2|E2B,2E2 E4F2|G2A2B2 c2A2F2|B2G2E2 A2F2D2|G2A2B2 E4E2|E2B,2E2 E3FGA|B2e2g2 f2b2^d2|e6E4f2|
g2a2b2 e4e2|g4f2 e2B2e2|e3fga b2g2e2|b2g2e2 a2f2d2|g2a2b2 e4e2|f4f2 e2B2A2|G2F2E2 B4^d2|e4E2E4f2|
g2a2b2 e4e2|g4f2 e2B2G2|E2G2B2 G2B2e2|e2B2G2 A2F2D2|G2A2B2 E4E2|c2A2G2 F2A2c2|B2A2G2 A2G2F2|G2E2E2 E4||
